www/assets/icons/drive_file_rename_outline.svg

<svg width="24" height="24" viewBox="0 0 24 24" xmlns="http://www.w3.org/2000/svg" fill='currentColor'><path d="M18.41 5.79744L17.2 4.58744C16.42 3.80744 15.15 3.80744 14.37 4.58744L3 15.9574V19.9974H7.04L18.41 8.62744C19.2 7.84744 19.2 6.57744 18.41 5.79744ZM6.21 17.9974H5V16.7874L13.66 8.12744L14.87 9.33744L6.21 17.9974ZM11 19.9974L15 15.9974H21V19.9974H11Z"/></svg>

<svg xmlns="http://www.w3.org/2000/svg" width="24" height="24" viewBox="0 0 24 24" fill='currentColor'><path d="m18.41 5.797-1.21-1.21c-.78-.78-2.05-.78-2.83 0L3 15.957v4.04h4.04l11.37-11.37c.79-.78.79-2.05 0-2.83m-12.2 12.2H5v-1.21l8.66-8.66 1.21 1.21zm4.79 2 4-4h6v4z"/></svg>
